X: 17910
T: House In Rose Valley, The
R: waltz
M: 3/4
K: Edorian
B4E2|E4E2|B4A2|Bdd4|
B4d2|e4(3BAG|A4F2|F4B2|
E4E2|e4d2|B4A2|Bdd4|
F4A2|B4d2|B4A2|FEE4:|
|:F4A2|E4E2|D4F2|AB4BA/F/|
E3FE2|e4d2|B4F2|Aee2d2|
B4E2|E4E2|B4A2|Bdd4|
B4d2|e4B2|AFF4|E6:|

